public/logo-dark.svg

<svg width="169" height="36" viewBox="0 0 169 36" fill="none" xmlns="http://www.w3.org/2000/svg">
<path d="M67.2032 21.1504C65.439 21.1504 63.98 21.0045 62.8061 20.7193C61.6388 20.4341 60.7634 19.9699 60.1798 19.3398C59.5961 18.7098 59.3043 17.8808 59.3043 16.8461C59.3043 15.8182 59.5961 14.9825 60.1798 14.3459C60.7634 13.7092 61.6388 13.2449 62.8061 12.9531C63.9733 12.6613 65.439 12.5154 67.2032 12.5154C68.954 12.5154 70.4065 12.6613 71.5671 12.9531C72.7277 13.2449 73.5899 13.7092 74.1669 14.3459C74.7439 14.9825 75.0291 15.8182 75.0291 16.8461C75.0291 17.8741 74.7373 18.7098 74.1669 19.3398C73.5899 19.9699 72.7211 20.4341 71.5671 20.7193C70.4065 21.0045 68.954 21.1504 67.2032 21.1504ZM67.2032 18.7429C68.0256 18.7429 68.7087 18.6766 69.2658 18.5374C69.8229 18.3981 70.2407 18.1858 70.5259 17.9073C70.811 17.6221 70.9569 17.2706 70.9569 16.8528C70.9569 16.435 70.8177 16.0768 70.5325 15.7916C70.2473 15.5065 69.8295 15.2876 69.279 15.1417C68.7285 14.9958 68.0322 14.9228 67.2032 14.9228C66.3808 14.9228 65.691 14.9958 65.1207 15.1417C64.5503 15.2876 64.1192 15.4998 63.8274 15.7784C63.5356 16.0636 63.3897 16.4151 63.3897 16.8528C63.3897 17.2772 63.5356 17.6287 63.8208 17.9073C64.106 18.1925 64.5371 18.3981 65.1074 18.5374C65.6712 18.67 66.3742 18.7429 67.2032 18.7429Z" fill="#0F1546"/>
<path d="M82.9549 19.406L81.0581 19.3728L85.243 12.7606H89.6467L83.8502 20.9049H80.0964L74.5653 12.7606H78.9491L82.9549 19.406Z" fill="#0F1546"/>
<path d="M100.417 17.9734H104.337C104.237 18.6167 103.919 19.1738 103.382 19.6513C102.844 20.1288 102.062 20.4936 101.041 20.7589C100.019 21.0175 98.7127 21.1502 97.1276 21.1502C95.4563 21.1502 94.0105 21.0175 92.7969 20.7522C91.5832 20.487 90.648 20.036 89.9981 19.4059C89.3482 18.7759 89.0165 17.9203 89.0165 16.8459C89.0165 15.7848 89.3349 14.9359 89.9716 14.2926C90.6083 13.6559 91.5301 13.1983 92.7372 12.9197C93.9442 12.6412 95.4099 12.5019 97.121 12.5019C98.8055 12.5019 100.185 12.6544 101.259 12.9529C102.334 13.2513 103.123 13.7355 103.634 14.4053C104.144 15.0751 104.39 15.9838 104.363 17.1245H93.0621C93.1152 17.4097 93.2744 17.6816 93.533 17.9203C93.7917 18.1657 94.1962 18.358 94.7467 18.5106C95.2972 18.6631 96.0267 18.7361 96.9486 18.7361C97.9036 18.7361 98.6862 18.6698 99.2963 18.5371C99.9264 18.4045 100.298 18.2188 100.417 17.9734ZM96.9618 14.916C95.7879 14.916 94.8926 15.042 94.2758 15.3006C93.659 15.5527 93.3009 15.8113 93.1881 16.0633H100.497C100.417 15.7782 100.105 15.5129 99.5682 15.2741C99.0244 15.0354 98.1556 14.916 96.9618 14.916Z" fill="#0F1546"/>
<path d="M105.066 12.7605H109.052V20.9048H105.066V12.7605ZM113.342 15.8312C112.62 15.8312 111.963 15.8975 111.366 16.0302C110.769 16.1628 110.259 16.322 109.834 16.5011C109.416 16.6868 109.098 16.8658 108.886 17.0383L108.853 16.2424C108.886 16.0103 108.972 15.7384 109.118 15.42C109.264 15.1017 109.456 14.7767 109.701 14.4385C109.947 14.1002 110.245 13.7819 110.597 13.4901C110.948 13.1983 111.359 12.9595 111.817 12.7738C112.275 12.5881 112.785 12.5019 113.336 12.5019V15.8312H113.342Z" fill="#0F1546"/>
<path d="M131.356 15.2477L122.369 19.1208L122.217 18.4046H131.455V20.8983H118.562V18.4046L127.482 14.5314L127.635 15.2477H118.562V12.754H131.356V15.2477Z" fill="#0F1546"/>
<path d="M138.598 21.1303C137.404 21.1303 136.336 20.9645 135.408 20.6262C134.479 20.288 133.743 19.7972 133.206 19.1539C132.669 18.5106 132.404 17.7346 132.404 16.826C132.404 15.871 132.669 15.0752 133.206 14.4318C133.743 13.7885 134.479 13.311 135.408 12.986C136.336 12.661 137.404 12.5019 138.598 12.5019C139.924 12.5019 141.078 12.681 142.047 13.0391C143.015 13.3972 143.764 13.9013 144.288 14.5512C144.812 15.2012 145.078 15.9572 145.078 16.8194C145.078 17.4627 144.925 18.0463 144.627 18.5703C144.328 19.0942 143.897 19.5518 143.333 19.9298C142.77 20.3145 142.086 20.6063 141.291 20.8119C140.488 21.0308 139.593 21.1303 138.598 21.1303ZM140.09 18.6101C140.932 18.6101 141.702 18.557 142.405 18.4509C143.108 18.3448 143.671 18.1657 144.103 17.9137C144.527 17.6617 144.739 17.2969 144.739 16.8327C144.739 16.3551 144.527 15.9904 144.103 15.7384C143.678 15.4863 143.108 15.3073 142.405 15.2078C141.702 15.1083 140.932 15.0553 140.09 15.0553C138.963 15.0553 138.087 15.2011 137.464 15.493C136.84 15.7848 136.535 16.2291 136.535 16.8327C136.535 17.2173 136.675 17.5489 136.953 17.8142C137.232 18.0795 137.636 18.2785 138.167 18.4111C138.697 18.5437 139.341 18.6101 140.09 18.6101ZM144.746 12.7605H148.732V20.9048H144.978C144.898 20.3941 144.839 19.9033 144.806 19.4258C144.766 18.9483 144.746 18.3912 144.746 17.7479V12.7605Z" fill="#0F1546"/>
<path d="M149.76 9.43793H153.746V20.9048H149.76V9.43793ZM163.853 12.7606L157.274 17.3301L157.36 15.1681L164.423 20.8982H159.376L153.825 16.2624L158.581 12.754H163.853V12.7606Z" fill="#0F1546"/>
<path d="M169 8.48962V10.9833H164.782V8.48962H169ZM164.895 12.7607H168.88V20.9049H164.895V12.7607Z" fill="#0F1546"/>
<path d="M44.0392 11.5657C44.0392 11.5657 47.342 11.5657 47.342 17.2627C47.3818 19.889 46.8446 22.9597 43.9464 22.9597" fill="#0F1546"/>
<path d="M3.30478 22.8471C3.30478 22.8471 0.00199039 22.8471 0.00199039 17.1501C-0.0378023 14.5238 0.499398 11.4531 3.39763 11.4531" fill="#0F1546"/>
<path d="M38.077 2.95744C38.0571 2.95081 38.0305 2.93754 38.0106 2.93091C37.8846 2.87785 37.7652 2.83143 37.6326 2.785C33.3085 1.08718 28.5997 0.158691 23.6654 0.158691C18.7443 0.158691 14.0289 1.08718 9.70477 2.785C9.57876 2.83143 9.45938 2.87785 9.32674 2.93091C9.30685 2.94417 9.28032 2.95081 9.26042 2.95744C9.06146 3.03703 8.86912 3.12326 8.67679 3.21611C5.12198 4.92719 2.97318 8.63454 2.97318 12.5806V22.9864C2.97318 26.9325 5.12861 30.6532 8.69006 32.3576C8.87576 32.4505 9.06809 32.53 9.26042 32.6096C9.28032 32.6229 9.30685 32.6295 9.32674 32.6362C9.45275 32.6892 9.57213 32.7356 9.70477 32.7821C14.0289 34.4799 18.7377 35.415 23.6654 35.415C28.593 35.415 33.3085 34.4799 37.6326 32.7821C37.7586 32.7356 37.878 32.6892 38.0106 32.6362C38.0305 32.6295 38.0571 32.6162 38.077 32.6096C38.2693 32.53 38.4616 32.4438 38.6473 32.3576C42.2088 30.6532 44.3642 26.9325 44.3642 22.9864V12.5806C44.3642 8.64117 42.2154 4.92719 38.6606 3.21611C38.4682 3.12989 38.2759 3.03703 38.077 2.95744ZM38.833 23.2318C38.6407 25.5464 36.7638 27.3968 34.4426 27.5427L32.4264 27.6687C28.414 27.9274 18.9168 27.9274 14.8977 27.6687L12.8882 27.5427C10.5736 27.3968 8.68343 25.5464 8.49773 23.2318C8.23907 20.002 8.23907 15.5651 8.49773 12.3353C8.68343 10.0273 10.5669 8.17029 12.8882 8.02439L14.8977 7.89838C16.9072 7.77237 20.283 7.70604 23.6587 7.70604C27.0411 7.70604 30.4169 7.77237 32.4198 7.89838L34.4359 8.02439C36.7505 8.17693 38.6341 10.0273 38.8264 12.3353C39.0917 15.5651 39.0917 20.002 38.833 23.2318Z" fill="#0F1546"/>
<path d="M31.5244 12.2225H15.9456V16.0161H22.7037L15.8262 20.0352V23.3579H31.3918V19.5444H24.6204L31.5244 15.5452V12.2225Z" fill="#0F1546"/>
</svg>

<svg xmlns="http://www.w3.org/2000/svg" width="169" height="36" fill="#0f1546" xmlns:v="https://vecta.io/nano"><path d="M67.203 21.15c-1.764 0-3.223-.146-4.397-.431-1.167-.285-2.043-.749-2.626-1.38s-.876-1.459-.876-2.494c0-1.028.292-1.864.876-2.5s1.459-1.101 2.626-1.393 2.633-.438 4.397-.438c1.751 0 3.203.146 4.364.438s2.023.756 2.6 1.393.862 1.472.862 2.5-.292 1.864-.862 2.494c-.577.63-1.446 1.094-2.6 1.38-1.161.285-2.613.431-4.364.431zm0-2.408c.822 0 1.505-.066 2.063-.205s.975-.352 1.26-.63c.285-.285.431-.637.431-1.055s-.139-.776-.424-1.061-.703-.504-1.254-.65-1.247-.219-2.076-.219c-.822 0-1.512.073-2.082.219s-1.001.358-1.293.637c-.292.285-.438.637-.438 1.074 0 .424.146.776.431 1.055.285.285.716.491 1.287.63.564.133 1.267.205 2.096.205zm15.752.664l-1.897-.033 4.185-6.612h4.404l-5.796 8.144h-3.754l-5.531-8.144h4.384l4.006 6.645zm17.462-1.433h3.92c-.1.643-.418 1.2-.955 1.678s-1.32.842-2.341 1.108c-1.022.259-2.328.391-3.913.391-1.671 0-3.117-.133-4.331-.398s-2.149-.716-2.799-1.346-.982-1.486-.982-2.56c0-1.061.318-1.91.955-2.553.637-.637 1.559-1.094 2.766-1.373s2.673-.418 4.384-.418c1.685 0 3.064.153 4.138.451s1.864.783 2.375 1.452.756 1.579.729 2.719H93.062c.053.285.212.557.471.796.259.245.663.438 1.214.59s1.28.226 2.202.226c.955 0 1.738-.066 2.348-.199.63-.133 1.002-.318 1.121-.564zm-3.455-3.057c-1.174 0-2.069.126-2.686.385-.617.252-.975.511-1.088.763h7.309c-.08-.285-.392-.55-.929-.789-.544-.239-1.413-.358-2.606-.358zm8.104-2.155h3.986v8.144h-3.986v-8.144zm8.276 3.071c-.722 0-1.379.066-1.976.199s-1.107.292-1.532.471c-.418.186-.736.365-.948.537l-.033-.796c.033-.232.119-.504.265-.822s.338-.643.583-.982a5.14 5.14 0 0 1 .896-.948c.352-.291.762-.531 1.22-.716s.968-.272 1.519-.272v3.329h.006zm18.014-.584l-8.987 3.873-.152-.716h9.238v2.494h-12.893v-2.494l8.92-3.873.153.716h-9.073v-2.494h12.794v2.494zm7.242 5.882c-1.194 0-2.262-.166-3.19-.504s-1.665-.829-2.202-1.472-.802-1.419-.802-2.328c0-.955.265-1.751.802-2.394s1.273-1.121 2.202-1.446 1.996-.484 3.19-.484c1.326 0 2.48.179 3.449.537s1.717.862 2.241 1.512a3.51 3.51 0 0 1 .79 2.268c0 .643-.153 1.227-.451 1.751s-.73.982-1.294 1.36c-.563.385-1.247.677-2.042.882-.803.219-1.698.318-2.693.318zm1.492-2.52c.842 0 1.612-.053 2.315-.159s1.266-.285 1.698-.537c.424-.252.636-.617.636-1.081a1.2 1.2 0 0 0-.636-1.094c-.425-.252-.995-.431-1.698-.531s-1.473-.152-2.315-.152c-1.127 0-2.003.146-2.626.438s-.929.736-.929 1.34a1.31 1.31 0 0 0 .418.982c.279.265.683.464 1.214.597s1.174.199 1.923.199zm4.656-5.85h3.986v8.144h-3.754l-.172-1.479-.06-1.678V12.76zm5.014-3.322h3.986v11.467h-3.986V9.438zm14.093 3.323l-6.579 4.57.086-2.162 7.063 5.73h-5.047l-5.551-4.636 4.756-3.508h5.272v.007zM169 8.49v2.494h-4.218V8.49H169zm-4.105 4.271h3.985v8.144h-3.985v-8.144zM44.039 11.566s3.303 0 3.303 5.697c.04 2.626-.497 5.697-3.396 5.697m-40.641-.113s-3.303 0-3.303-5.697c-.04-2.626.497-5.697 3.396-5.697"/><path d="M38.077 2.957c-.02-.007-.046-.02-.066-.027l-.378-.146A38.12 38.12 0 0 0 23.665.159c-4.921 0-9.637.928-13.961 2.626a14.41 14.41 0 0 0-.378.146c-.02.013-.046.02-.066.027-.199.08-.391.166-.584.259-3.555 1.711-5.704 5.418-5.704 9.364v10.406c0 3.946 2.155 7.667 5.717 9.371.186.093.378.172.57.252.02.013.046.02.066.027a6.74 6.74 0 0 0 .378.146c4.324 1.698 9.033 2.633 13.961 2.633s9.643-.935 13.967-2.633l.378-.146c.02-.007.047-.02.066-.027a14.89 14.89 0 0 0 .57-.252c3.561-1.704 5.717-5.425 5.717-9.371V12.581c0-3.939-2.149-7.653-5.704-9.364-.192-.086-.385-.179-.584-.259zm.756 20.274c-.192 2.315-2.069 4.165-4.39 4.311l-2.016.126c-4.012.259-13.51.259-17.529 0l-2.01-.126c-2.315-.146-4.205-1.996-4.39-4.311a76.5 76.5 0 0 1 0-10.896c.186-2.308 2.069-4.165 4.39-4.311l2.01-.126c2.009-.126 5.385-.192 8.761-.192 3.382 0 6.758.066 8.761.192l2.016.126a4.74 4.74 0 0 1 4.391 4.311c.265 3.23.265 7.667.007 10.897zm-7.309-11.008H15.946v3.794h6.758l-6.878 4.019v3.323h15.566v-3.814H24.62l6.904-3.999v-3.323z"/></svg>
